X:1
T:Salem (Methfessel), irr.
T:Salem (Methfessel), irr.
T:Johann Methfessel’s Songbook, 1818
T:Public Domain Courtesy of the Cyber Hymnal™
C:Johann Methfessel’s Songbook, 1818
Z:Public Domain
Z:Courtesy of the Cyber Hymnal™
%%score ( 1 2 ) ( 3 4 )
L:1/8
M:4/4
K:C
V:1 treble 
V:2 treble 
V:3 bass 
V:4 bass 
V:1
 G2 | [Ec]4 [GB]2 [FA]2 | [EG]4 [EG]2 G2 | [FA]2 G2 [FA]2 [FB]2 | [Ec]4 [EG]2 [CG]2 | %5
 [CA]2 [CG]2 [B,F]2 [CE]2 | [CA]2 [CG]2 [B,F]2 [CE]2 | [B,D]2 [DG]2 [DG]3 [DA] | [DG]6 [B,G]2 | %9
 [CE]2 [CG]2 [CG]2 [CG]2 | [CA]2 [CG]2 [CG]2 [CG]2 | [CE]2 [CG]2 [CG]2 G2 | [^FA]2 G2 G4 | %13
 [Ec]2 [Ec]2 [Gd]2 [Gd]2 | [Ge]4 [Ec]2 [Ec]2 | [Fd]4 [Ec]2 [DB]2 | [Ec]6 |] %17
V:2
 G2 | x8 | x6 G2 | x2 G2 x4 | x8 | x8 | x8 | x8 | x8 | x8 | x8 | x6 G2 | x2 G2 G4 | x8 | x8 | x8 | %16
 x6 |] %17
V:3
 G,2 | [C,G,]4 [C,A,]2 [C,B,]2 | [C,C]4 [C,C]2 [E,C]2 | [F,C]2 [E,C]2 [F,C]2 [D,G,]2 | %4
 [C,G,]4 [C,G,]2 [E,C]2 | [F,C]2 [E,G,]2 [D,G,]2 [C,G,]2 | F,2 [E,G,]2 [D,G,]2 [C,G,]2 | %7
 [D,G,]2 [D,B,]2 [D,B,]3 [D,C] | [G,B,]6 G,2 | [C,G,]2 [E,G,]2 [E,G,]2 [E,G,]2 | %10
 F,2 [E,G,]2 [E,G,]2 [E,G,]2 | [C,G,]2 [E,G,]2 [E,G,]2 [E,C]2 | [D,C]2 [G,B,]2 [G,B,]4 | %13
 [A,C]2 [A,C]2 [G,B,]2 [G,B,]2 | [C,C]4 [A,C]2 [A,C]2 | [F,A,]4 G,2 G,2 | [C,G,]6 |] %17
V:4
 G,2 | x8 | x8 | x8 | x8 | x8 | F,2 x6 | x8 | x6 G,2 | x8 | F,2 x6 | x8 | x8 | x8 | x8 | %15
 x4 G,2 G,2 | x6 |] %17

